elementary-icon-theme/elementary-monochrome/status/24/nm-signal-100.svg

<?xml version="1.0" encoding="UTF-8" standalone="no"?>
<!-- Created with Inkscape (http://www.inkscape.org/) -->

<svg
   xmlns:dc="http://purl.org/dc/elements/1.1/"
   xmlns:cc="http://creativecommons.org/ns#"
   xmlns:rdf="http://www.w3.org/1999/02/22-rdf-syntax-ns#"
   xmlns:svg="http://www.w3.org/2000/svg"
   xmlns="http://www.w3.org/2000/svg"
   xmlns:xlink="http://www.w3.org/1999/xlink"
   xmlns:sodipodi="http://sodipodi.sourceforge.net/DTD/sodipodi-0.dtd"
   xmlns:inkscape="http://www.inkscape.org/namespaces/inkscape"
   version="1.0"
   width="24"
   height="24"
   id="svg2"
   sodipodi:version="0.32"
   inkscape:version="0.47pre4 r22446"
   sodipodi:docname="gnome-netstatus-75-100.svg"
   inkscape:output_extension="org.inkscape.output.svg.inkscape">
  <metadata
     id="metadata13">
    <rdf:RDF>
      <cc:Work
         rdf:about="">
        <dc:format>image/svg+xml</dc:format>
        <dc:type
           rdf:resource="http://purl.org/dc/dcmitype/StillImage" />
      </cc:Work>
    </rdf:RDF>
  </metadata>
  <sodipodi:namedview
     inkscape:window-height="689"
     inkscape:window-width="1280"
     inkscape:pageshadow="2"
     inkscape:pageopacity="0.0"
     guidetolerance="10.0"
     gridtolerance="10.0"
     objecttolerance="10.0"
     borderopacity="1.0"
     bordercolor="#666666"
     pagecolor="#ffffff"
     id="base"
     showgrid="false"
     inkscape:zoom="18.333333"
     inkscape:cx="10.445454"
     inkscape:cy="11.781818"
     inkscape:window-x="0"
     inkscape:window-y="24"
     inkscape:current-layer="svg2"
     showguides="true"
     inkscape:guide-bbox="true"
     inkscape:window-maximized="1">
    <inkscape:grid
       type="xygrid"
       id="grid3185" />
  </sodipodi:namedview>
  <defs
     id="defs4">
    <linearGradient
       inkscape:collect="always"
       xlink:href="#linearGradient3587-8-5-3-2"
       id="linearGradient3763-6"
       gradientUnits="userSpaceOnUse"
       gradientTransform="translate(-51.09668,-6.363826)"
       x1="66.09668"
       y1="9.3638258"
       x2="66.09668"
       y2="27.363825" />
    <linearGradient
       id="linearGradient3587-8-5-3-2">
      <stop
         offset="0"
         style="stop-color:#000000;stop-opacity:1"
         id="stop3589-2-7-0-1" />
      <stop
         offset="1"
         style="stop-color:#363636;stop-opacity:1"
         id="stop3591-3-5-2-8" />
    </linearGradient>
    <linearGradient
       inkscape:collect="always"
       xlink:href="#linearGradient3587-6-5-3"
       id="linearGradient3766-1"
       gradientUnits="userSpaceOnUse"
       x1="14"
       y1="3"
       x2="14"
       y2="21" />
    <linearGradient
       id="linearGradient3587-6-5-3">
      <stop
         offset="0"
         style="stop-color:#000000;stop-opacity:1"
         id="stop3589-9-2-0" />
      <stop
         offset="1"
         style="stop-color:#363636;stop-opacity:1"
         id="stop3591-7-4-7" />
    </linearGradient>
  </defs>
  <path
     sodipodi:nodetypes="czcczcczc"
     id="path3209-4"
     style="opacity:0.6;color:#000000;fill:none;stroke:#ffffff;stroke-width:1.62394822;stroke-linecap:butt;stroke-linejoin:miter;stroke-miterlimit:4;stroke-opacity:1;stroke-dasharray:none;stroke-dashoffset:0;marker:none;visibility:visible;display:inline;overflow:visible;enable-background:accumulate"
     d="m 9.0436522,16.541611 c 0,0 0.562205,-0.852868 2.8734888,-0.879246 2.365793,-0.027 3.20342,1.042882 3.20342,1.042882 m -8.8420258,-3.14161 c 0,0 1.9182713,-1.960491 5.7037188,-1.885192 3.785448,0.0753 5.703718,1.978399 5.703718,1.978399 M 3.4363636,10.563637 c 0,0 2.5903476,-2.9927524 8.5458904,-2.9927524 5.955544,0 8.581383,2.9786954 8.581383,2.9786954" />
  <g
     id="g3617"
     style="opacity:0.7">
    <path
       style="opacity:0.90000000000000002;fill:#ffffff;fill-opacity:1;fill-rule:evenodd;stroke:none;overflow:visible"
       id="path3375-2"
       d="M 13.971486,19.223407 C 13.884937,19.304188 11.974657,21.5 11.974657,21.5 c 0,0 -1.89209,-2.214367 -1.96308,-2.276593 0.126866,-0.103143 0.644662,-0.508757 1.967205,-0.502973 1.301354,0.0057 1.893585,0.402995 1.992704,0.502973 z" />
    <path
       style="opacity:1;fill:url(#linearGradient3766-1);fill-opacity:1;fill-rule:evenodd;stroke:none;overflow:visible"
       id="path3375"
       d="M 14.146921,17.709046 C 14.052671,17.790336 11.972402,20 11.972402,20 c 0,0 -2.0604605,-2.228336 -2.1377677,-2.290954 0.1381547,-0.103794 0.7020277,-0.511967 2.1422597,-0.506146 1.417157,0.0057 2.062088,0.405537 2.170027,0.506146 z" />
  </g>
  <path
     id="path3209"
     style="opacity:0.7;color:#000000;fill:none;stroke:url(#linearGradient3763-6);stroke-width:1.70000005;stroke-linecap:butt;stroke-linejoin:miter;stroke-miterlimit:4;stroke-opacity:1;stroke-dasharray:none;stroke-dashoffset:0;marker:none;visibility:visible;display:inline;overflow:visible;enable-background:accumulate"
     d="m 7.7707898,15.449448 c 0,0 1.0185042,-1.291002 4.1389782,-1.323908 3.081571,-0.0325 4.260671,1.323908 4.260671,1.323908 M 5.0566111,12.452688 c 0,0 2.2353716,-2.422385 6.9240639,-2.3362 4.727583,0.0869 6.924062,2.375106 6.924062,2.375106 M 2.1991235,9.4137962 c 0,0 3.1038827,-3.4307802 9.7815515,-3.4307802 6.644841,0 9.820203,3.4366024 9.820203,3.4366024" />
</svg>

<?xml version="1.0" encoding="UTF-8" standalone="no"?>
<!-- Created with Inkscape (http://www.inkscape.org/) -->
<svg
   xmlns:dc="http://purl.org/dc/elements/1.1/"
   xmlns:cc="http://creativecommons.org/ns#"
   xmlns:rdf="http://www.w3.org/1999/02/22-rdf-syntax-ns#"
   xmlns:svg="http://www.w3.org/2000/svg"
   xmlns="http://www.w3.org/2000/svg"
   xmlns:xlink="http://www.w3.org/1999/xlink"
   xmlns:sodipodi="http://sodipodi.sourceforge.net/DTD/sodipodi-0.dtd"
   xmlns:inkscape="http://www.inkscape.org/namespaces/inkscape"
   version="1.0"
   width="24"
   height="24"
   id="svg3167"
   sodipodi:version="0.32"
   inkscape:version="0.46"
   sodipodi:docname="nm-signal-100.svg"
   inkscape:output_extension="org.inkscape.output.svg.inkscape">
  <metadata
     id="metadata18">
    <rdf:RDF>
      <cc:Work
         rdf:about="">
        <dc:format>image/svg+xml</dc:format>
        <dc:type
           rdf:resource="http://purl.org/dc/dcmitype/StillImage" />
      </cc:Work>
    </rdf:RDF>
  </metadata>
  <sodipodi:namedview
     inkscape:window-height="706"
     inkscape:window-width="640"
     inkscape:pageshadow="2"
     inkscape:pageopacity="0.0"
     guidetolerance="10.0"
     gridtolerance="10.0"
     objecttolerance="10.0"
     borderopacity="1.0"
     bordercolor="#666666"
     pagecolor="#ffffff"
     id="base"
     showgrid="false"
     inkscape:zoom="20.75"
     inkscape:cx="4.5301205"
     inkscape:cy="12"
     inkscape:window-x="0"
     inkscape:window-y="24"
     inkscape:current-layer="svg3167" />
  <defs
     id="defs3169">
    <inkscape:perspective
       sodipodi:type="inkscape:persp3d"
       inkscape:vp_x="0 : 12 : 1"
       inkscape:vp_y="0 : 1000 : 0"
       inkscape:vp_z="24 : 12 : 1"
       inkscape:persp3d-origin="12 : 8 : 1"
       id="perspective20" />
    <linearGradient
       id="linearGradient3587-6-5-3">
      <stop
         id="stop3589-9-2-0"
         style="stop-color:#000000;stop-opacity:1"
         offset="0" />
      <stop
         id="stop3591-7-4-7"
         style="stop-color:#363636;stop-opacity:1"
         offset="1" />
    </linearGradient>
    <linearGradient
       x1="14"
       y1="3"
       x2="14"
       y2="21"
       id="linearGradient2394"
       xlink:href="#linearGradient3587-6-5-3"
       gradientUnits="userSpaceOnUse" />
    <linearGradient
       id="linearGradient3587-8-5-3-2">
      <stop
         id="stop3589-2-7-0-1"
         style="stop-color:#000000;stop-opacity:1"
         offset="0" />
      <stop
         id="stop3591-3-5-2-8"
         style="stop-color:#363636;stop-opacity:1"
         offset="1" />
    </linearGradient>
    <linearGradient
       x1="66.09668"
       y1="9.3638258"
       x2="66.09668"
       y2="27.363825"
       id="linearGradient3763-6"
       xlink:href="#linearGradient3587-8-5-3-2"
       gradientUnits="userSpaceOnUse"
       gradientTransform="translate(-51.09668,-6.363826)" />
    <linearGradient
       inkscape:collect="always"
       xlink:href="#linearGradient3587-8-5-3-2"
       id="linearGradient2395"
       gradientUnits="userSpaceOnUse"
       gradientTransform="translate(-51.09668,-6.363826)"
       x1="66.09668"
       y1="9.3638258"
       x2="66.09668"
       y2="27.363825" />
    <linearGradient
       inkscape:collect="always"
       xlink:href="#linearGradient3587-6-5-3"
       id="linearGradient2398"
       gradientUnits="userSpaceOnUse"
       x1="14"
       y1="3"
       x2="14"
       y2="21" />
  </defs>
  <path
     style="opacity:0.6;fill:none;stroke:#ffffff;stroke-width:1.62394822;stroke-linecap:butt;stroke-linejoin:miter;marker:none;stroke-miterlimit:4;stroke-dasharray:none;stroke-dashoffset:0;stroke-opacity:1;visibility:visible;display:inline;overflow:visible;enable-background:accumulate"
     id="path3209-4"
     d="M 9.0436522,16.541611 C 9.0436522,16.541611 9.6058572,15.688743 11.917141,15.662365 C 14.282934,15.635365 15.120561,16.705247 15.120561,16.705247 M 6.2785352,13.563637 C 6.2785352,13.563637 8.1968065,11.603146 11.982254,11.678445 C 15.767702,11.753745 17.685972,13.656844 17.685972,13.656844 M 3.4363636,10.563637 C 3.4363636,10.563637 6.0267112,7.5708846 11.982254,7.5708846 C 17.937798,7.5708846 20.563637,10.54958 20.563637,10.54958" />
  <path
     style="opacity:0.6;fill:#ffffff;fill-opacity:1;fill-rule:evenodd;stroke:none;overflow:visible"
     id="path3375-2"
     d="M 13.971486,19.223407 C 13.884937,19.304188 11.974657,21.5 11.974657,21.5 C 11.974657,21.5 10.082567,19.285633 10.011577,19.223407 C 10.138443,19.120264 10.656239,18.71465 11.978782,18.720434 C 13.280136,18.726134 13.872367,19.123429 13.971486,19.223407 L 13.971486,19.223407 z" />
  <path
     style="opacity:0.7;fill:url(#linearGradient2398);fill-opacity:1;fill-rule:evenodd;stroke:none;overflow:visible"
     id="path3375"
     d="M 14.146921,17.709046 C 14.052671,17.790336 11.972402,20 11.972402,20 C 11.972402,20 9.9119415,17.771664 9.8346343,17.709046 C 9.972789,17.605252 10.536662,17.197079 11.976894,17.2029 C 13.394051,17.2086 14.038982,17.608437 14.146921,17.709046 L 14.146921,17.709046 z" />
  <path
     style="opacity:0.7;fill:none;stroke:url(#linearGradient2395);stroke-width:1.70000005000000010;stroke-linecap:butt;stroke-linejoin:miter;marker:none;stroke-miterlimit:4;stroke-dasharray:none;stroke-dashoffset:0;stroke-opacity:1;visibility:visible;display:inline;overflow:visible;enable-background:accumulate"
     id="path3209"
     d="M 7.7707898,15.449448 C 7.7707898,15.449448 8.789294,14.158446 11.909768,14.12554 C 14.991339,14.09304 16.170439,15.449448 16.170439,15.449448 M 5.0566111,12.452688 C 5.0566111,12.452688 7.2919827,10.030303 11.980675,10.116488 C 16.708258,10.203388 18.904737,12.491594 18.904737,12.491594 M 2.1991235,9.4137962 C 2.1991235,9.4137962 5.3030062,5.983016 11.980675,5.983016 C 18.625516,5.983016 21.800878,9.4196184 21.800878,9.4196184" />
</svg>
